img/Ico/Clock.svg

<svg width="22" height="22" viewBox="0 0 22 22" fill="none" xmlns="http://www.w3.org/2000/svg">
<path fill-rule="evenodd" clip-rule="evenodd" d="M10.0055 1H11.9945C13.3805 0.99999 14.4828 0.99999 15.3716 1.0738C16.2819 1.14939 17.0575 1.30755 17.7658 1.67552C18.8617 2.24477 19.7552 3.13829 20.3245 4.23415C20.6925 4.94253 20.8506 5.71811 20.9262 6.62839C21 7.51722 21 8.6195 21 10.0055V11.9945C21 13.3805 21 14.4828 20.9262 15.3716C20.8506 16.2819 20.6925 17.0575 20.3245 17.7658C19.7552 18.8617 18.8617 19.7552 17.7658 20.3245C17.0575 20.6925 16.2819 20.8506 15.3716 20.9262C14.4828 21 13.3805 21 11.9945 21H10.0055C8.6195 21 7.51722 21 6.62839 20.9262C5.71811 20.8506 4.94253 20.6925 4.23415 20.3245C3.13829 19.7552 2.24477 18.8617 1.67552 17.7658C1.30755 17.0575 1.14939 16.2819 1.0738 15.3716C0.99999 14.4828 0.99999 13.3805 1 11.9945V10.0055C0.99999 8.61949 0.99999 7.51721 1.0738 6.62839C1.14939 5.71811 1.30755 4.94253 1.67552 4.23415C2.24477 3.13829 3.13829 2.24477 4.23415 1.67552C4.94253 1.30755 5.71811 1.14939 6.62839 1.0738C7.51721 0.99999 8.61949 0.99999 10.0055 1ZM6.79391 3.06694C6.00955 3.13207 5.53142 3.25538 5.1561 3.45035C4.42553 3.82985 3.82985 4.42553 3.45035 5.1561C3.25538 5.53142 3.13207 6.00955 3.06694 6.79391C3.0008 7.59025 3 8.60949 3 10.05V11.95C3 13.3905 3.0008 14.4097 3.06694 15.2061C3.13207 15.9905 3.25538 16.4686 3.45035 16.8439C3.82985 17.5745 4.42553 18.1702 5.1561 18.5497C5.53142 18.7446 6.00955 18.8679 6.79391 18.9331C7.59025 18.9992 8.60949 19 10.05 19H11.95C13.3905 19 14.4097 18.9992 15.2061 18.9331C15.9905 18.8679 16.4686 18.7446 16.8439 18.5497C17.5745 18.1702 18.1702 17.5745 18.5497 16.8439C18.7446 16.4686 18.8679 15.9905 18.9331 15.2061C18.9992 14.4097 19 13.3905 19 11.95V10.05C19 8.60949 18.9992 7.59025 18.9331 6.79391C18.8679 6.00955 18.7446 5.53142 18.5497 5.1561C18.1702 4.42553 17.5745 3.82985 16.8439 3.45035C16.4686 3.25538 15.9905 3.13207 15.2061 3.06694C14.4097 3.0008 13.3905 3 11.95 3H10.05C8.60949 3 7.59025 3.0008 6.79391 3.06694ZM10.8284 5.75736C11.3807 5.75736 11.8284 6.20507 11.8284 6.75736V11.7245L15.3553 13.0653C15.8716 13.2615 16.131 13.8391 15.9347 14.3553C15.7385 14.8716 15.1609 15.131 14.6447 14.9347L10.4731 13.349C10.085 13.2014 9.8284 12.8294 9.8284 12.4142V6.75736C9.8284 6.20507 10.2761 5.75736 10.8284 5.75736Z" fill="black"/>
</svg>

<svg width="22" height="22" fill="none" xmlns="http://www.w3.org/2000/svg"><path fill-rule="evenodd" clip-rule="evenodd" d="M10.005 1h1.99c1.386 0 2.488 0 3.377.074.91.075 1.686.234 2.394.602a6 6 0 0 1 2.559 2.558c.367.709.526 1.484.601 2.394.074.89.074 1.992.074 3.377v1.99c0 1.386 0 2.488-.074 3.377-.075.91-.233 1.686-.601 2.394a6 6 0 0 1-2.56 2.559c-.707.367-1.483.526-2.393.601-.89.074-1.992.074-3.377.074h-1.99c-1.386 0-2.488 0-3.377-.074-.91-.075-1.685-.233-2.394-.601a6 6 0 0 1-2.558-2.56c-.368-.707-.527-1.483-.602-2.393C1 14.482 1 13.38 1 11.995v-1.99c0-1.386 0-2.488.074-3.377.075-.91.234-1.685.602-2.394a6 6 0 0 1 2.558-2.558c.709-.368 1.484-.527 2.394-.602C7.518 1 8.62 1 10.005 1zM6.794 3.067c-.784.065-1.263.188-1.638.383A4 4 0 0 0 3.45 5.156c-.195.375-.318.854-.383 1.638C3 7.59 3 8.609 3 10.05v1.9c0 1.44 0 2.46.067 3.256.065.785.188 1.263.383 1.638a4 4 0 0 0 1.706 1.706c.375.195.854.318 1.638.383C7.59 19 8.609 19 10.05 19h1.9c1.44 0 2.46 0 3.256-.067.785-.065 1.263-.188 1.638-.383a4 4 0 0 0 1.706-1.706c.195-.375.318-.854.383-1.638C19 14.41 19 13.39 19 11.95v-1.9c0-1.44 0-2.46-.067-3.256-.065-.784-.188-1.263-.383-1.638a4 4 0 0 0-1.706-1.706c-.375-.195-.854-.318-1.638-.383C14.41 3 13.39 3 11.95 3h-1.9c-1.44 0-2.46 0-3.256.067zm4.034 2.69a1 1 0 0 1 1 1v4.968l3.527 1.34a1 1 0 1 1-.71 1.87l-4.172-1.586a1 1 0 0 1-.645-.935V6.757a1 1 0 0 1 1-1z" fill="#000"/></svg>
